src/assets/tokens/primeliquidberaeth.svg

<svg width="60" height="53" viewBox="0 0 60 53" fill="none" xmlns="http://www.w3.org/2000/svg">
<g clip-path="url(#clip0_4544_43428)">
<path d="M53.5143 21.2245C53.4653 20.9624 53.4039 20.7117 53.3058 20.4723C53.3426 20.4153 61.4829 9.87259 53.9435 3.35323C46.4159 -3.16616 37.6254 5.33642 37.5764 5.38201C36.1788 4.97168 34.7689 4.72093 33.3713 4.60695C33.3713 4.60695 33.3713 4.60695 33.359 4.60695C30.4902 4.16245 26.469 4.60695 26.469 4.60695C25.0836 4.72093 23.686 4.97168 22.3006 5.37058C22.2516 5.32499 13.4613 -3.17755 5.93378 3.34183C-1.59378 9.86121 6.53448 20.4153 6.57127 20.4609C6.48547 20.7117 6.4119 20.9624 6.36285 21.2132C5.55372 25.7266 0 27.1171 0 34.9814C0 42.9938 5.79889 49.3079 17.6419 49.3079H22.4968C22.5213 49.3307 24.3971 51.8156 28.2712 51.9636C28.2712 51.9636 29.1662 52.0547 31.2258 51.9864C35.3329 51.9864 37.3312 49.3534 37.3435 49.3193H42.1983C54.0412 49.3193 59.8401 43.0052 59.8401 34.9928C59.8769 27.1398 54.3232 25.7379 53.5143 21.2245Z" fill="white"/>
<g clip-path="url(#clip1_4544_43428)">
<path d="M29.8586 9.06714L29.6235 9.86557V33.0322L29.8586 33.2668L40.6121 26.9103L29.8586 9.06714Z" fill="#0E0A31"/>
<path d="M29.8588 9.06714L19.105 26.9103L29.8588 33.2668V22.0223V9.06714Z" fill="#0E0A31"/>
<path d="M29.8586 35.3028L29.7261 35.4643V43.7166L29.8586 44.1034L40.6186 28.9496L29.8586 35.3028Z" fill="#0E0A31"/>
<path d="M29.8588 44.1034V35.3028L19.105 28.9496L29.8588 44.1034Z" fill="#0E0A31"/>
<path d="M29.8589 33.2667L40.6124 26.9103L29.8589 22.0223V33.2667Z" fill="#0E0A31"/>
<path d="M19.105 26.9103L29.8588 33.2667V22.0223L19.105 26.9103Z" fill="#0E0A31"/>
</g>
</g>
<defs>
<clipPath id="clip0_4544_43428">
<rect width="60" height="51.2409" fill="white" transform="translate(0 0.879578)"/>
</clipPath>
<clipPath id="clip1_4544_43428">
<rect width="21.5138" height="35.0365" fill="white" transform="translate(19.105 9.06714)"/>
</clipPath>
</defs>
</svg>

<svg xmlns="http://www.w3.org/2000/svg" fill="none" viewBox="0 0 60 53"><g clip-path="url(#a)"><path fill="#fff" d="M53.514 21.225a4 4 0 0 0-.208-.753c.037-.057 8.177-10.6.638-17.119-7.528-6.52-16.319 1.983-16.368 2.029a21 21 0 0 0-4.205-.775h-.012c-2.869-.445-6.89 0-6.89 0a21.4 21.4 0 0 0-4.168.764c-.05-.046-8.84-8.549-16.367-2.03s.6 17.074.637 17.12c-.086.25-.16.501-.208.752C5.553 25.727 0 27.117 0 34.981c0 8.013 5.799 14.327 17.642 14.327h4.855c.024.023 1.9 2.508 5.774 2.656 0 0 .895.09 2.955.022 4.107 0 6.105-2.633 6.118-2.667h4.854c11.843 0 17.642-6.314 17.642-14.326.037-7.853-5.517-9.255-6.326-13.769"/><g fill="#0E0A31" clip-path="url(#b)"><path d="m29.859 9.067-.236.799v23.166l.236.235 10.753-6.357z"/><path d="M29.859 9.067 19.105 26.91l10.754 6.357zm0 26.236-.133.161v8.253l.133.386 10.76-15.153z"/><path d="M29.859 44.103v-8.8L19.105 28.95zm0-10.836 10.753-6.357-10.753-4.888z"/><path d="m19.105 26.91 10.754 6.357V22.022z"/></g></g><defs><clipPath id="a"><path fill="#fff" d="M0 .88h60v51.24H0z"/></clipPath><clipPath id="b"><path fill="#fff" d="M19.105 9.067h21.514v35.036H19.105z"/></clipPath></defs></svg>
